X: 400
T: Miss Mackenzie's Strasphey
%R: strathspey
Z: 2014 John Chambers <jc:trillian.mit.edu>
B: Preston "Twenty four Country Dances for the Year 1800" p.180 #2
F: http://www.vwml.org/browse/browse-collections-dance-tune-books/browse-prestons1800# 2014-8-10
M: 2/4
L: 1/16
K: Bb
F2 |\
!f!B3!p!(B/c/) !f!B3!p!(B/c/) | .d2.B2 .e2.c2 | B3!p!(B/c/) !f!B3!p!(B/c/) | .c2.A2.B2F2 |
!f!B3!p!(B/c/) !f!B3!p!(B/c/) | .d2.B2 .e2.c2 | B3!p!(B/c/) (B>c)(d>e) | .f2.F2 B2 |] (fe) |
!p!(d>f)(g>f) (g>f)(e>d) | (c>e)(f>e) (f>e)(d>c) | (B>d)(e>d) (e>d)(c>B) | .A2.c2.c2 e2 |
(g>e).e.e (f>d).d.d | (e>c).c.c (Ac)(cF) | (G3A) (cB)(AG) | (F3B) B2 |]
% - - - - - - - - - - - - - - - - - - - - - - - - -
%%begintext align
%% 1st & 2d Cu: set & hands 4 half round, set &
%% hands across back again, 1st Cu: cross over 1 Cu:
%% and turn, right & left, with the 3d Cu:
%%endtext
% - - - - - - - - - - - - - - - - - - - - - - - - -
